svg/white/wtc.svg

<svg height="32" viewBox="0 0 32 32" width="32" xmlns="http://www.w3.org/2000/svg"><g fill="#fff" fill-rule="evenodd"><path d="m16 32c-8.836556 0-16-7.163444-16-16s7.163444-16 16-16 16 7.163444 16 16-7.163444 16-16 16zm2.4137931-18.8336162v-2.4908994c0-.0552157-.0069154-.1102231-.0205914-.1637903-.0923784-.3618355-.466816-.58182972-.8363297-.4913708l-3.4482759.8441558c-.3070117.0751581-.5223892.3452765-.5223892.6551612v7.5558344c0 .0552158.0069154.1102232.0205914.1637903.0923784.3618355.466816.5818298.8363297.4913709l2.2465272-.5499615v-4.5376575c0-.6197693.430755-1.1600062 1.0447784-1.3103223zm-7.5862069-.0422078v-2.4486916c0-.0552157-.0069154-.1102231-.0205914-.1637903-.0923784-.3618355-.466816-.58182972-.83632971-.4913708l-3.44827587.8441558c-.30701172.0751581-.52238922.3452765-.52238922.6551612v7.5558344c0 .0552158.00691541.1102232.02059138.1637903.09237843.3618355.46681601.5818298.83632974.4913709l2.07411336-.5077537v-4.5798653c0-.6197693.430755-1.1600062 1.04477845-1.3103223zm10.8672168-2.2390726c-.3070117.0751581-.5223892.3452765-.5223892.6551612v7.5558345c0 .0552157.0069154.1102231.0205914.1637902.0923784.3618356.466816.5818298.8363297.4913709l3.4482759-.8441558c.3070117-.0751581.5223892-.3452766.5223892-.6551612v-7.5558345c0-.0552157-.0069154-.1102231-.0205914-.1637903-.0923784-.3618355-.466816-.58182971-.8363297-.4913708zm-8.7982513 2.4286879-2.7534728.6740644c-.30701175.0751581-.52238924.3452766-.52238924.6551612v7.5558345c0 .0552157.00691541.1102231.02059137.1637902.09237844.3618356.46681597.5818298.83632977.4913709l3.4482758-.8441558c.3070118-.0751581.5223893-.3452765.5223893-.6551612v-.9390307c-.6834545.0851596-1.3392999-.3418766-1.5105414-1.0126095-.0273519-.1071343-.0411828-.217149-.0411828-.3275806zm7.5862069.0422078-2.581059.6318566c-.3070118.0751581-.5223893.3452766-.5223893.6551612v7.5558345c0 .0552157.0069155.1102231.0205914.1637902.0923785.3618356.466816.5818298.8363298.4913709l3.4482758-.8441558c.3070118-.0751581.5223893-.3452765.5223893-.6551612v-.9507946l-.0102957.0025205c-.7390275.1809177-1.4879027-.2590707-1.6726595-.9827418-.027352-.1071343-.0411828-.217149-.0411828-.3275805z" fill-rule="nonzero"/><path d="m12.8965517 13.3137913v5.7616834c0 .1104316.0138309.2204463.0411828.3275806.1712415.6707329.8270869 1.0977691 1.5105414 1.0126095v.9390307c0 .3098847-.2153775.5800031-.5223893.6551612l-3.4482758.8441558c-.3695138.0904589-.74395133-.1295353-.83632977-.4913709-.01367596-.0535671-.02059137-.1085745-.02059137-.1637902v-7.5558345c0-.3098846.21537749-.5800031.52238924-.6551612zm7.5862069.0422078v5.7401c0 .1104315.0138308.2204462.0411828.3275805.1847568.7236711.933632 1.1636595 1.6726595.9827418l.0102957-.0025205v.9507946c0 .3098847-.2153775.5800031-.5223893.6551612l-3.4482758.8441558c-.3695138.0904589-.7439513-.1295353-.8363298-.4913709-.0136759-.0535671-.0205914-.1085745-.0205914-.1637902v-7.5558345c0-.3098846.2153775-.5800031.5223893-.6551612z" opacity=".504"/></g></svg>

<svg xmlns="http://www.w3.org/2000/svg" width="32" height="32" viewBox="0 0 32 32">
  <g fill="none" fill-rule="evenodd">
    <path fill="#FFF" fill-rule="nonzero" d="M16,32 C7.163444,32 0,24.836556 0,16 C0,7.163444 7.163444,0 16,0 C24.836556,0 32,7.163444 32,16 C32,24.836556 24.836556,32 16,32 Z M18.4137931,13.1663838 L18.4137931,10.6754844 C18.4137931,10.6202687 18.4068777,10.5652613 18.3932017,10.5116941 C18.3008233,10.1498586 17.9263857,9.92986438 17.556872,10.0203233 L14.1085961,10.8644791 C13.8015844,10.9396372 13.5862069,11.2097556 13.5862069,11.5196403 L13.5862069,19.0754747 C13.5862069,19.1306905 13.5931223,19.1856979 13.6067983,19.239265 C13.6991767,19.6011005 14.0736143,19.8210948 14.443128,19.7306359 L16.6896552,19.1806744 L16.6896552,14.6430169 C16.6896552,14.0232476 17.1204102,13.4830107 17.7344336,13.3326946 L18.4137931,13.1663838 Z M10.8275862,13.124176 L10.8275862,10.6754844 C10.8275862,10.6202687 10.8206708,10.5652613 10.8069948,10.5116941 C10.7146164,10.1498586 10.3401788,9.92986438 9.97066509,10.0203233 L6.52238922,10.8644791 C6.2153775,10.9396372 6,11.2097556 6,11.5196403 L6,19.0754747 C6,19.1306905 6.00691541,19.1856979 6.02059138,19.239265 C6.11296981,19.6011005 6.48740739,19.8210948 6.85692112,19.7306359 L8.93103448,19.2228822 L8.93103448,14.6430169 C8.93103448,14.0232476 9.36178948,13.4830107 9.97581293,13.3326946 L10.8275862,13.124176 Z M21.694803,10.8851034 C21.3877913,10.9602615 21.1724138,11.2303799 21.1724138,11.5402646 L21.1724138,19.0960991 C21.1724138,19.1513148 21.1793292,19.2063222 21.1930052,19.2598893 C21.2853836,19.6217249 21.6598212,19.8417191 22.0293349,19.7512602 L25.4776108,18.9071044 C25.7846225,18.8319463 26,18.5618278 26,18.2519432 L26,10.6961087 C26,10.640893 25.9930846,10.5858856 25.9794086,10.5323184 C25.8870302,10.1704829 25.5125926,9.95048869 25.1430789,10.0409476 L21.694803,10.8851034 Z M12.8965517,13.3137913 L10.1430789,13.9878557 C9.83606715,14.0630138 9.62068966,14.3331323 9.62068966,14.6430169 L9.62068966,22.1988514 C9.62068966,22.2540671 9.62760507,22.3090745 9.64128103,22.3626416 C9.73365947,22.7244772 10.108097,22.9444714 10.4776108,22.8540125 L13.9258866,22.0098567 C14.2328984,21.9346986 14.4482759,21.6645802 14.4482759,21.3546955 L14.4482759,20.4156648 C13.7648214,20.5008244 13.108976,20.0737882 12.9377345,19.4030553 C12.9103826,19.295921 12.8965517,19.1859063 12.8965517,19.0754747 L12.8965517,13.3137913 Z M20.4827586,13.3559991 L17.9016996,13.9878557 C17.5946878,14.0630138 17.3793103,14.3331323 17.3793103,14.6430169 L17.3793103,22.1988514 C17.3793103,22.2540671 17.3862258,22.3090745 17.3999017,22.3626416 C17.4922802,22.7244772 17.8667177,22.9444714 18.2362315,22.8540125 L21.6845073,22.0098567 C21.9915191,21.9346986 22.2068966,21.6645802 22.2068966,21.3546955 L22.2068966,20.4039009 L22.1966009,20.4064214 C21.4575734,20.5873391 20.7086982,20.1473507 20.5239414,19.4236796 C20.4965894,19.3165453 20.4827586,19.2065306 20.4827586,19.0960991 L20.4827586,13.3559991 Z"/>
    <path fill="#FFF" d="M12.8965517,13.3137913 L12.8965517,19.0754747 C12.8965517,19.1859063 12.9103826,19.295921 12.9377345,19.4030553 C13.108976,20.0737882 13.7648214,20.5008244 14.4482759,20.4156648 L14.4482759,21.3546955 C14.4482759,21.6645802 14.2328984,21.9346986 13.9258866,22.0098567 L10.4776108,22.8540125 C10.108097,22.9444714 9.73365947,22.7244772 9.64128103,22.3626416 C9.62760507,22.3090745 9.62068966,22.2540671 9.62068966,22.1988514 L9.62068966,14.6430169 C9.62068966,14.3331323 9.83606715,14.0630138 10.1430789,13.9878557 L12.8965517,13.3137913 Z M20.4827586,13.3559991 L20.4827586,19.0960991 C20.4827586,19.2065306 20.4965894,19.3165453 20.5239414,19.4236796 C20.7086982,20.1473507 21.4575734,20.5873391 22.1966009,20.4064214 L22.2068966,20.4039009 L22.2068966,21.3546955 C22.2068966,21.6645802 21.9915191,21.9346986 21.6845073,22.0098567 L18.2362315,22.8540125 C17.8667177,22.9444714 17.4922802,22.7244772 17.3999017,22.3626416 C17.3862258,22.3090745 17.3793103,22.2540671 17.3793103,22.1988514 L17.3793103,14.6430169 C17.3793103,14.3331323 17.5946878,14.0630138 17.9016996,13.9878557 L20.4827586,13.3559991 Z" opacity=".504"/>
  </g>
</svg>
